!!!OTL: O Come, All Ye Faithful
!!!OTA: Adeste Fideles
!!!COM: Wade, John Francis
!!!ODT: 1751
!!!YOR: The Christmas Fake Book
!!!YOY: 1990
!!!AST: Christmas song
!!!YEC: Brian Luke, 2001
**kern	**harm
*k[f#]	*k[f#]
*M4/4	*M4/4
*G:	*G:
*>A	*>A
4g	.
=1	=1
2g	I
4d	.
4g	.
=2	=2
2a	V
2d	.
=3	=3
4b	I
4a	.
4b	.
4cc	V
=4	=4
2b	I
4a	V
4g	vi
=5	=5
2g	.
4f#	V
4e	V7/V
=6	=6
4f#	V
4g	.
4a	.
4b	I
=7	=7
2f#	V
4.e	V7/V
8d	.
=8	=8
2.d	V;
4r	.
=9	=9
2dd	I
4cc	ii
4b	I
=10	=10
2cc	V7
2b	I
=11	=11
4a	V
4b	.
4g	vi
4a	ii
=12	=12
4.f#	V
8e	.
4d	.
4g	.
=13	=13
4g	I
4f#	.
4g	.
4a	V7
=14	=14
2g	I
4d	.
4b	.
=15	=15
4b	.
4a	.
4b	.
4cc	V7
=16	=16
2b	I
4a	V
4b	I
=17	=17
4cc	V7
4b	.
4a	.
4g	V7/V
=18	=18
2f#	V
4g	I
4cc	IV
=19	=19
2b	I
4.a	V7
8g	.
=20	=20
2.g	I;
*-	*-
